icons/a3-portrait-16.svg

<?xml version="1.0" encoding="UTF-8"?><svg id="icons" xmlns="http://www.w3.org/2000/svg" viewBox="0 0 16 16"><defs><style>.cls-1{fill:none;}.cls-1,.cls-2,.cls-3{stroke-width:0px;}.cls-2{opacity:.25;}</style></defs><rect class="cls-1" width="16" height="16"/><path class="cls-2" d="M10,3H3V1h7v2Z"/><path class="cls-3" d="M11.40039,0H2v5h1V1h7v4h4v10H3v-1h-1v2h13V3.59961l-3.59961-3.59961ZM14,4h-3V1h.31049l2.68951,2.68951v.31049ZM10.5,13c-1.4248,0-2.5-.85938-2.5-2h1c0,.56055.65918,1,1.5,1,.81348,0,1.5-.49805,1.5-1.08789,0-.62695-.77734-.91211-1.5-.91211v-1c.81348,0,1.5-.45801,1.5-1s-.68652-1-1.5-1-1.5.45801-1.5,1h-1c0-1.10254,1.12109-2,2.5-2s2.3.89746,2.3,2c0,.57715-.10664,1.09766-.59687,1.46289.50098.33984.79688.8457.79688,1.44922,0,1.15137-1.12109,2.08789-2.5,2.08789ZM5.99951,13h1.00049l-2.99991-7h-1.00019L0,13h1.00049l.857-2h3.28502l.857,2ZM2.28602,10l1.21398-2.83301,1.21398,2.83301h-2.42795Z"/></svg>

<svg xmlns="http://www.w3.org/2000/svg" viewBox="0 0 16 16"><path stroke-width="0" fill="none" d="M0 0h16v16H0z"/><path d="M10 3H3V1h7v2z" opacity=".25" stroke-width="0"/><path d="M11.4 0H2v5h1V1h7v4h4v10H3v-1H2v2h13V3.6L11.4 0zM14 4h-3V1h.31L14 3.69V4zm-3.5 9C9.075 13 8 12.14 8 11h1c0 .56.66 1 1.5 1 .813 0 1.5-.498 1.5-1.088 0-.627-.777-.912-1.5-.912V9c.813 0 1.5-.458 1.5-1s-.687-1-1.5-1S9 7.458 9 8H8c0-1.103 1.121-2 2.5-2s2.3.897 2.3 2c0 .577-.107 1.098-.597 1.463.501.34.797.846.797 1.45C13 12.062 11.879 13 10.5 13zM6 13h1L4 6H3l-3 7h1l.857-2h3.286L6 13zm-3.714-3L3.5 7.167 4.714 10H2.286z" stroke-width="0"/></svg>
